src/epub/images/titlepage.svg

<?xml version="1.0" encoding="utf-8"?>
<svg xmlns="http://www.w3.org/2000/svg" xmlns:svg="http://www.w3.org/2000/svg" version="1.1" viewBox="0 0 1400 340">
	<title>The titlepage for the Standard Ebooks edition of Zuleika Dobson, by Max Beerbohm</title>
	<g>
		<path d="m 295.97879,52.807016 -63.53216,0 0,15.438597 32.74854,0 L 227.01973,130 l 66.43275,0 0,-15.4386 -35.74269,0 38.269,-61.754384 z"/>
		<path d="m 367.46125,52.807016 -17.59064,0 0,44.63158 c 0,12.912284 -3.92983,16.654974 -12.53802,16.654974 -8.60818,0 -12.53801,-3.74269 -12.53801,-16.654974 l 0,-44.63158 -17.59064,0 0,49.777774 c 0,19.08772 10.47953,28.81872 30.12865,28.81872 19.64913,0 30.12866,-9.731 30.12866,-28.81872 l 0,-49.777774 z"/>
		<path d="m 400.35746,52.807016 -17.59064,0 0,77.192984 44.16374,0 0,-15.4386 -26.5731,0 0,-61.754384 z"/>
		<path d="m 484.74487,52.807016 -44.16374,0 0,77.192984 44.16374,0 0,-15.4386 -26.5731,0 0,-15.532161 25.4503,0 0,-15.438597 -25.4503,0 0,-15.345029 26.5731,0 0,-15.438597 z"/>
		<path d="m 517.4481,52.807016 -17.59065,0 0,77.192984 17.59065,0 0,-77.192984 z"/>
		<path d="m 604.00073,130 -35.92983,-40.608188 31.06433,-36.584796 -21.33333,0 -26.47954,31.532164 0,-31.532164 -17.59064,0 0,77.192984 17.59064,0 0,-32.748539 L 579.76681,130 l 24.23392,0 z"/>
		<path d="m 651.58407,52.807016 -16.2807,0 L 604.14548,130 l 18.90058,0 5.7076,-15.4386 29.38012,0 5.7076,15.4386 18.90059,0 -31.1579,-77.192984 z m 0.56141,46.31579 -17.40351,0 8.60819,-22.45614 0.18713,0 8.60819,22.45614 z"/>
		<path d="m 721.24634,52.807016 0,77.192984 22.36257,0 c 21.23977,0 38.92398,-16.09357 38.92398,-38.643276 0,-22.45614 -17.77778,-38.549708 -38.92398,-38.549708 l -22.36257,0 z m 17.59064,61.473684 0,-45.754385 2.71345,0 c 13.09942,0 21.98831,10.011696 21.98831,22.923977 -0.0936,12.912278 -8.98246,22.830408 -21.98831,22.830408 l -2.71345,0 z"/>
		<path d="m 791.8633,91.356724 c 0,22.549706 16.09357,40.046786 38.92398,40.046786 22.17543,0 38.83041,-17.49708 38.83041,-40.046786 0,-22.549708 -17.40351,-39.953217 -38.83041,-39.953217 -21.23977,0 -38.92398,17.403509 -38.92398,39.953217 z m 18.99415,0 c 0,-11.508772 6.36257,-23.017544 19.92983,-23.017544 13.66081,0 19.83625,11.508772 19.83625,23.017544 0,11.508776 -5.80117,23.017546 -19.83625,23.017546 -14.40936,0 -19.92983,-11.50877 -19.92983,-23.017546 z"/>
		<path d="m 882.37936,52.807016 0,77.192984 29.28655,0 c 16,0 25.26316,-8.79532 25.26316,-21.52047 0,-12.444443 -6.83041,-17.777776 -16.46783,-19.461987 6.5497,-3.368421 9.63742,-9.450292 9.63742,-16.561404 0,-14.690058 -10.47953,-19.649123 -23.76608,-19.649123 l -23.95322,0 z m 17.59065,30.222223 0,-16.654971 1.40351,0 c 7.67251,0 11.6959,2.339181 11.6959,7.859649 0,6.456141 -4.11696,8.795322 -11.6959,8.795322 l -1.40351,0 z m 0,33.403511 0,-18.245616 5.52047,0 c 8.32748,0 12.91228,2.526316 12.91228,9.637426 0,6.08187 -4.5848,8.60819 -12.91228,8.60819 l -5.52047,0 z"/>
		<path d="m 976.31362,51.403507 c -12.44445,0 -25.1696,9.169591 -25.1696,23.578948 0,8.046784 5.42691,15.251462 14.69006,19.836258 9.16959,4.584795 17.40351,7.111107 17.40351,12.725147 0,7.20468 -7.29824,7.57895 -11.1345,7.57895 -8.60819,0 -18.90059,-8.70176 -18.90059,-8.70176 l -8.79532,14.78363 c 0,0 10.94737,10.19883 29.00585,10.19883 15.06433,0 29.09937,-6.45614 29.09937,-24.88889 0,-10.105264 -9.45025,-17.40351 -18.05843,-21.052632 -8.79532,-3.742691 -16.09357,-6.83041 -16.09357,-11.134504 0,-4.210526 3.18129,-6.923976 9.16959,-6.923976 7.95322,0 15.62573,5.333333 15.62573,5.333333 l 7.11108,-14.035088 c 0,0 -9.9181,-7.298246 -23.95318,-7.298246 z"/>
		<path d="m 1012.2727,91.356724 c 0,22.549706 16.0935,40.046786 38.9239,40.046786 22.1755,0 38.8304,-17.49708 38.8304,-40.046786 0,-22.549708 -17.4035,-39.953217 -38.8304,-39.953217 -21.2397,0 -38.9239,17.403509 -38.9239,39.953217 z m 18.9941,0 c 0,-11.508772 6.3626,-23.017544 19.9298,-23.017544 13.6609,0 19.8363,11.508772 19.8363,23.017544 0,11.508776 -5.8012,23.017546 -19.8363,23.017546 -14.4093,0 -19.9298,-11.50877 -19.9298,-23.017546 z"/>
		<path d="m 1120.3794,82.093566 0.1871,0 30.6901,47.906434 17.5906,0 0,-77.192984 -17.5906,0 0,47.906434 -0.1872,0 -30.69,-47.906434 -17.5907,0 0,77.192984 17.5907,0 0,-47.906434 z"/>
	</g>
	<g>
		<path d="m 423.03509,290 13.19298,0 -5.19298,-57.89474 -14.03509,0 -12.8421,33.40351 -12.84211,-33.40351 -14.03509,0 -5.19298,57.89474 13.19298,0 2.73685,-34.31579 0.35087,0 11.85965,33.96491 7.85965,0 11.85965,-33.96491 0.35088,0 L 423.03509,290 Z"/>
		<path d="m 475.91667,232.10526 -12.21053,0 L 440.33772,290 l 14.17544,0 4.2807,-11.57895 22.03509,0 4.2807,11.57895 14.17544,0 -23.36842,-57.89474 z m 0.42105,34.73685 -13.05263,0 6.45614,-16.84211 0.14035,0 6.45614,16.84211 z"/>
		<path d="m 560.65023,290 -22.59649,-31.15789 18.94736,-26.73685 -16.42105,0 -10.66667,15.78948 -10.66666,-15.78948 -15.7193,0 18.24561,26.73685 L 499.8783,290 l 16.35087,0 13.68421,-19.7193 13.68422,19.7193 17.05263,0 z"/>
		<path d="m 591.72149,232.10526 0,57.89474 21.96491,0 c 12,0 18.94737,-6.59649 18.94737,-16.14035 0,-9.33333 -5.1228,-13.33333 -12.35087,-14.59649 4.91228,-2.52632 7.22807,-7.08772 7.22807,-12.42105 0,-11.01755 -7.85965,-14.73685 -17.82457,-14.73685 l -17.96491,0 z m 13.19298,22.66667 0,-12.49123 1.05264,0 c 5.75438,0 8.77193,1.75439 8.77193,5.89474 0,4.8421 -3.08772,6.59649 -8.77193,6.59649 l -1.05264,0 z m 0,25.05263 0,-13.68421 4.14036,0 c 6.24561,0 9.68421,1.89474 9.68421,7.22807 0,4.5614 -3.4386,6.45614 -9.68421,6.45614 l -4.14036,0 z"/>
		<path d="m 676.58224,232.10526 -33.1228,0 0,57.89474 33.1228,0 0,-11.57895 -19.92982,0 0,-11.64912 19.08772,0 0,-11.57895 -19.08772,0 0,-11.50877 19.92982,0 0,-11.57895 z"/>
		<path d="m 722.28946,232.10526 -33.12281,0 0,57.89474 33.12281,0 0,-11.57895 -19.92983,0 0,-11.64912 19.08772,0 0,-11.57895 -19.08772,0 0,-11.50877 19.92983,0 0,-11.57895 z"/>
		<path d="m 734.8739,232.10526 0,57.89474 13.19298,0 0,-22.87719 17.68421,22.87719 16.77193,0 -19.92982,-23.92982 c 7.08771,-2.24562 11.85964,-8.07018 11.85964,-16.77193 0,-11.36842 -8.14035,-17.19299 -18.87719,-17.19299 l -20.70175,0 z m 13.19298,25.68421 0,-15.15789 1.54386,0 c 4.98246,0 10.94737,0.35088 10.94737,7.57895 0,7.22807 -5.96491,7.57894 -10.94737,7.57894 l -1.54386,0 z"/>
		<path d="m 790.17544,232.10526 0,57.89474 21.96491,0 c 12,0 18.94737,-6.59649 18.94737,-16.14035 0,-9.33333 -5.12281,-13.33333 -12.35088,-14.59649 4.91229,-2.52632 7.22807,-7.08772 7.22807,-12.42105 0,-11.01755 -7.85964,-14.73685 -17.82456,-14.73685 l -17.96491,0 z m 13.19298,22.66667 0,-12.49123 1.05264,0 c 5.75438,0 8.77193,1.75439 8.77193,5.89474 0,4.8421 -3.08772,6.59649 -8.77193,6.59649 l -1.05264,0 z m 0,25.05263 0,-13.68421 4.14035,0 c 6.24562,0 9.68422,1.89474 9.68422,7.22807 0,4.5614 -3.4386,6.45614 -9.68422,6.45614 l -4.14035,0 z"/>
		<path d="m 839.3169,261.01754 c 0,16.91228 12.07017,30.03509 29.19298,30.03509 16.63158,0 29.1228,-13.12281 29.1228,-30.03509 0,-16.91228 -13.05263,-29.96491 -29.1228,-29.96491 -15.92983,0 -29.19298,13.05263 -29.19298,29.96491 z m 14.24561,0 c 0,-8.63157 4.77193,-17.26315 14.94737,-17.26315 10.24561,0 14.87719,8.63158 14.87719,17.26315 0,8.63158 -4.35088,17.26316 -14.87719,17.26316 -10.80702,0 -14.94737,-8.63158 -14.94737,-17.26316 z"/>
		<path d="m 921.64693,266.77193 18.66666,0 0,23.22807 13.19299,0 0,-57.89474 -13.19299,0 0,23.08772 -18.66666,0 0,-23.08772 -13.19299,0 0,57.89474 13.19299,0 0,-23.22807 z"/>
		<path d="m 1014.7675,290 13.193,0 -5.193,-57.89474 -14.0351,0 -12.84208,33.40351 -12.84211,-33.40351 -14.03508,0 -5.19299,57.89474 13.19299,0 2.73684,-34.31579 0.35088,0 11.85964,33.96491 7.85965,0 11.85966,-33.96491 0.3509,0 2.7368,34.31579 z"/>
	</g>
</svg>

<?xml version="1.0" encoding="utf-8"?>
<svg xmlns="http://www.w3.org/2000/svg" xmlns:svg="http://www.w3.org/2000/svg" version="1.1" viewBox="0 0 1400 340">
	<title>The titlepage for the Standard Ebooks edition of Zuleika Dobson, by Max Beerbohm</title>
	<g aria-label="ZULEIKA DOBSON">
		<path d="m 295.97879,52.807016 h -63.53216 v 15.438597 h 32.74854 L 227.01973,130 h 66.43275 v -15.4386 h -35.74269 z"/>
		<path d="m 367.46125,52.807016 h -17.59064 v 44.63158 c 0,12.912284 -3.92983,16.654974 -12.53802,16.654974 -8.60818,0 -12.53801,-3.74269 -12.53801,-16.654974 v -44.63158 h -17.59064 v 49.777774 c 0,19.08772 10.47953,28.81872 30.12865,28.81872 19.64913,0 30.12866,-9.731 30.12866,-28.81872 z"/>
		<path d="M 400.35746,52.807016 H 382.76682 V 130 h 44.16374 v -15.4386 h -26.5731 z"/>
		<path d="M 484.74487,52.807016 H 440.58113 V 130 h 44.16374 v -15.4386 h -26.5731 V 99.029239 h 25.4503 V 83.590642 h -25.4503 V 68.245613 h 26.5731 z"/>
		<path d="M 517.4481,52.807016 H 499.85745 V 130 h 17.59065 z"/>
		<path d="M 604.00073,130 568.0709,89.391812 599.13523,52.807016 H 577.8019 L 551.32236,84.33918 V 52.807016 H 533.73172 V 130 h 17.59064 V 97.251461 L 579.76681,130 Z"/>
		<path d="m 651.58407,52.807016 h -16.2807 L 604.14548,130 h 18.90058 l 5.7076,-15.4386 h 29.38012 L 663.84138,130 h 18.90059 z m 0.56141,46.31579 h -17.40351 l 8.60819,-22.45614 h 0.18713 z"/>
		<path d="M 721.24634,52.807016 V 130 h 22.36257 c 21.23977,0 38.92398,-16.09357 38.92398,-38.643276 0,-22.45614 -17.77778,-38.549708 -38.92398,-38.549708 z M 738.83698,114.2807 V 68.526315 h 2.71345 c 13.09942,0 21.98831,10.011696 21.98831,22.923977 -0.0936,12.912278 -8.98246,22.830408 -21.98831,22.830408 z"/>
		<path d="m 791.8633,91.356724 c 0,22.549706 16.09357,40.046786 38.92398,40.046786 22.17543,0 38.83041,-17.49708 38.83041,-40.046786 0,-22.549708 -17.40351,-39.953217 -38.83041,-39.953217 -21.23977,0 -38.92398,17.403509 -38.92398,39.953217 z m 18.99415,0 c 0,-11.508772 6.36257,-23.017544 19.92983,-23.017544 13.66081,0 19.83625,11.508772 19.83625,23.017544 0,11.508776 -5.80117,23.017546 -19.83625,23.017546 -14.40936,0 -19.92983,-11.50877 -19.92983,-23.017546 z"/>
		<path d="M 882.37936,52.807016 V 130 h 29.28655 c 16,0 25.26316,-8.79532 25.26316,-21.52047 0,-12.444443 -6.83041,-17.777776 -16.46783,-19.461987 6.5497,-3.368421 9.63742,-9.450292 9.63742,-16.561404 0,-14.690058 -10.47953,-19.649123 -23.76608,-19.649123 z m 17.59065,30.222223 V 66.374268 h 1.40351 c 7.67251,0 11.6959,2.339181 11.6959,7.859649 0,6.456141 -4.11696,8.795322 -11.6959,8.795322 z m 0,33.403511 V 98.187134 h 5.52047 c 8.32748,0 12.91228,2.526316 12.91228,9.637426 0,6.08187 -4.5848,8.60819 -12.91228,8.60819 z"/>
		<path d="m 976.31362,51.403507 c -12.44445,0 -25.1696,9.169591 -25.1696,23.578948 0,8.046784 5.42691,15.251462 14.69006,19.836258 9.16959,4.584795 17.40351,7.111107 17.40351,12.725147 0,7.20468 -7.29824,7.57895 -11.1345,7.57895 -8.60819,0 -18.90059,-8.70176 -18.90059,-8.70176 l -8.79532,14.78363 c 0,0 10.94737,10.19883 29.00585,10.19883 15.06433,0 29.09937,-6.45614 29.09937,-24.88889 0,-10.105264 -9.45025,-17.40351 -18.05843,-21.052632 -8.79532,-3.742691 -16.09357,-6.83041 -16.09357,-11.134504 0,-4.210526 3.18129,-6.923976 9.16959,-6.923976 7.95322,0 15.62573,5.333333 15.62573,5.333333 l 7.11108,-14.035088 c 0,0 -9.9181,-7.298246 -23.95318,-7.298246 z"/>
		<path d="m 1012.2727,91.356724 c 0,22.549706 16.0935,40.046786 38.9239,40.046786 22.1755,0 38.8304,-17.49708 38.8304,-40.046786 0,-22.549708 -17.4035,-39.953217 -38.8304,-39.953217 -21.2397,0 -38.9239,17.403509 -38.9239,39.953217 z m 18.9941,0 c 0,-11.508772 6.3626,-23.017544 19.9298,-23.017544 13.6609,0 19.8363,11.508772 19.8363,23.017544 0,11.508776 -5.8012,23.017546 -19.8363,23.017546 -14.4093,0 -19.9298,-11.50877 -19.9298,-23.017546 z"/>
		<path d="m 1120.3794,82.093566 h 0.1871 L 1151.2566,130 h 17.5906 V 52.807016 h -17.5906 v 47.906434 h -0.1872 l -30.69,-47.906434 h -17.5907 V 130 h 17.5907 z"/>
	</g>
	<g aria-label="MAX BEERBOHM">
		<path d="m 423.03509,290 h 13.19298 l -5.19298,-57.89474 H 417 l -12.8421,33.40351 -12.84211,-33.40351 H 377.2807 L 372.08772,290 h 13.19298 l 2.73685,-34.31579 h 0.35087 l 11.85965,33.96491 h 7.85965 l 11.85965,-33.96491 h 0.35088 z"/>
		<path d="M 475.91667,232.10526 H 463.70614 L 440.33772,290 h 14.17544 l 4.2807,-11.57895 h 22.03509 L 485.10965,290 h 14.17544 z m 0.42105,34.73685 H 463.28509 L 469.74123,250 h 0.14035 z"/>
		<path d="m 560.65023,290 -22.59649,-31.15789 18.94736,-26.73685 h -16.42105 l -10.66667,15.78948 -10.66666,-15.78948 h -15.7193 L 521.77303,258.84211 499.8783,290 h 16.35087 L 529.91338,270.2807 543.5976,290 Z"/>
		<path d="M 591.72149,232.10526 V 290 h 21.96491 c 12,0 18.94737,-6.59649 18.94737,-16.14035 0,-9.33333 -5.1228,-13.33333 -12.35087,-14.59649 4.91228,-2.52632 7.22807,-7.08772 7.22807,-12.42105 0,-11.01755 -7.85965,-14.73685 -17.82457,-14.73685 z m 13.19298,22.66667 V 242.2807 h 1.05264 c 5.75438,0 8.77193,1.75439 8.77193,5.89474 0,4.8421 -3.08772,6.59649 -8.77193,6.59649 z m 0,25.05263 v -13.68421 h 4.14036 c 6.24561,0 9.68421,1.89474 9.68421,7.22807 0,4.5614 -3.4386,6.45614 -9.68421,6.45614 z"/>
		<path d="m 676.58224,232.10526 h -33.1228 V 290 h 33.1228 v -11.57895 h -19.92982 v -11.64912 h 19.08772 v -11.57895 h -19.08772 v -11.50877 h 19.92982 z"/>
		<path d="M 722.28946,232.10526 H 689.16665 V 290 h 33.12281 v -11.57895 h -19.92983 v -11.64912 h 19.08772 v -11.57895 h -19.08772 v -11.50877 h 19.92983 z"/>
		<path d="M 734.8739,232.10526 V 290 h 13.19298 V 267.12281 L 765.75109,290 h 16.77193 L 762.5932,266.07018 c 7.08771,-2.24562 11.85964,-8.07018 11.85964,-16.77193 0,-11.36842 -8.14035,-17.19299 -18.87719,-17.19299 z m 13.19298,25.68421 v -15.15789 h 1.54386 c 4.98246,0 10.94737,0.35088 10.94737,7.57895 0,7.22807 -5.96491,7.57894 -10.94737,7.57894 z"/>
		<path d="M 790.17544,232.10526 V 290 h 21.96491 c 12,0 18.94737,-6.59649 18.94737,-16.14035 0,-9.33333 -5.12281,-13.33333 -12.35088,-14.59649 4.91229,-2.52632 7.22807,-7.08772 7.22807,-12.42105 0,-11.01755 -7.85964,-14.73685 -17.82456,-14.73685 z m 13.19298,22.66667 V 242.2807 h 1.05264 c 5.75438,0 8.77193,1.75439 8.77193,5.89474 0,4.8421 -3.08772,6.59649 -8.77193,6.59649 z m 0,25.05263 v -13.68421 h 4.14035 c 6.24562,0 9.68422,1.89474 9.68422,7.22807 0,4.5614 -3.4386,6.45614 -9.68422,6.45614 z"/>
		<path d="m 839.3169,261.01754 c 0,16.91228 12.07017,30.03509 29.19298,30.03509 16.63158,0 29.1228,-13.12281 29.1228,-30.03509 0,-16.91228 -13.05263,-29.96491 -29.1228,-29.96491 -15.92983,0 -29.19298,13.05263 -29.19298,29.96491 z m 14.24561,0 c 0,-8.63157 4.77193,-17.26315 14.94737,-17.26315 10.24561,0 14.87719,8.63158 14.87719,17.26315 0,8.63158 -4.35088,17.26316 -14.87719,17.26316 -10.80702,0 -14.94737,-8.63158 -14.94737,-17.26316 z"/>
		<path d="m 921.64693,266.77193 h 18.66666 V 290 h 13.19299 v -57.89474 h -13.19299 v 23.08772 H 921.64693 V 232.10526 H 908.45394 V 290 h 13.19299 z"/>
		<path d="m 1014.7675,290 h 13.193 l -5.193,-57.89474 h -14.0351 l -12.84208,33.40351 -12.84211,-33.40351 H 969.01313 L 963.82014,290 h 13.19299 l 2.73684,-34.31579 h 0.35088 l 11.85964,33.96491 h 7.85965 l 11.85966,-33.96491 h 0.3509 z"/>
	</g>
</svg>
